build/img/icons/fb.svg

<svg width="27" height="26" viewBox="0 0 27 26" fill="none" xmlns="http://www.w3.org/2000/svg">
<path fill-rule="evenodd" clip-rule="evenodd" d="M24.689 25.494H17.6489V16.703H22.0488V12.308H17.6489V9.67C17.6505 9.43719 17.744 9.21437 17.9087 9.04984C18.0734 8.8853 18.296 8.79231 18.5288 8.791H22.4888V4.39099H18.0889C16.7682 4.50233 15.5381 5.10693 14.6431 6.08443C13.748 7.06193 13.2536 8.34064 13.2588 9.666V12.304H9.73877V16.698H13.2588V25.49H2.70898C2.24262 25.4892 1.79568 25.3037 1.46582 24.974C1.13596 24.6443 0.950276 24.1974 0.949219 23.731V1.758C0.95054 1.29181 1.13599 0.845116 1.46582 0.515656C1.79566 0.186195 2.24279 0.000791421 2.70898 0H24.689C25.1536 0.00290161 25.5985 0.189296 25.9263 0.518585C26.2541 0.847875 26.4382 1.29337 26.439 1.758V23.735C26.4384 24.1998 26.2541 24.6455 25.9263 24.9751C25.5984 25.3046 25.1538 25.4911 24.689 25.494Z" fill="#4A68AD"/>
</svg>

<svg width="27" height="26" fill="none" xmlns="http://www.w3.org/2000/svg"><path fill-rule="evenodd" clip-rule="evenodd" d="M24.689 25.494h-7.04v-8.791h4.4v-4.395h-4.4V9.67a.885.885 0 01.88-.879h3.96v-4.4h-4.4a5.272 5.272 0 00-4.83 5.275v2.638h-3.52v4.394h3.52v8.792H2.709a1.763 1.763 0 01-1.76-1.759V1.758A1.763 1.763 0 012.71 0h21.98a1.762 1.762 0 011.75 1.758v21.977a1.762 1.762 0 01-1.75 1.759z" fill="#4A68AD"/></svg>
